X:9
T:Roving Journeyman - Parsons
C:Taken down from Jas. Parsons, Sept. 1888, by S. B. Gould.  
%%VWML:SBG-1-1-51-0
F:http://www.vwml.org/record/SBG/1/1/51
Z:Original Sibleius Transcription by Martin and Shan Graebe
L:1/8
M:6/8
I:linebreak $
K:F
A | D2 D D2 E | F2 F F2 G | A2 A G2 F | (D3 D2) (F/G/) | A2 d d2 _e |$ d2 B G2 A | B2 A G2 F | 
D3 B2 c | d2 d d2 c | B2 B B2 c | d2 d c2 B |$ (A3 A2) B | D2 D D2 E | F2 G !fermata!A2 G | 
E2 F E2 E | D3- D2  |] 
T:Roving Journeyman - Aggett
T:Taken down from W. Aggett, Sept. 1890, by F.W.B. at Chagford.
L:1/8
M:6/8
I:linebreak $
K:F
A | A2 =B c2 A | d2 d e2 e | e2 A A2 ^G | (A3 A2) c/d/ | e2 A A2 c | e2 f f2 f |$ e2 A A2 =G | 
A3 A2 A | A2 A c2 d | e2 e e2 d | e2 A A2 =G | A6 |] 
T:Roving Journeyman - Chappell
T:The Budgeon is a fine delicate trade Chappell n. ed. p. 124
L:1/8
M:6/8
I:linebreak $
K:Bb
D | G2 G ^F2 D | B2 B A2 c | B2 G A2 ^F | G3- G2 :|$ B/c/ | d2 d d2 B | c2 c c2 A | B2 G c2 B | 
B2 A3"^&c." D |] 



